2 Export/Icons/Brands/Internet Explorer.svg

<svg xmlns="http://www.w3.org/2000/svg" xmlns:xlink="http://www.w3.org/1999/xlink" width="24" height="24" viewBox="0 0 24 24">
  <defs>
    <path id="internet-explorer-a" d="M20.0999325,8.40190589 C20.9436825,6.37690589 20.9999325,4.68940589 19.9874325,3.67690589 C18.8624325,2.55265589 16.1624325,2.88940589 13.2944325,4.23940589 L12.9569325,4.23940589 C10.9319325,4.23940589 8.96393253,4.97140589 7.50143253,6.26440589 C6.26393253,7.38940589 5.36393253,8.85190589 4.97018253,10.4831559 C5.25143253,10.1456559 6.82643253,8.28940589 8.62643253,7.27690589 C8.68268253,7.27690589 9.13268253,6.99565589 9.13268253,6.99565589 C9.07643253,6.99565589 8.23268253,7.83940589 8.06393253,8.00815589 C4.12643253,12.0581559 1.82093253,18.1886559 3.62093253,19.9879059 C4.80143253,21.1691559 6.93893253,20.8879059 9.41393253,19.5379059 C10.4826825,20.0441559 11.6639325,20.2691559 12.9569325,20.2691559 C14.6444325,20.2691559 16.2194325,19.8191559 17.5694325,18.9191559 C18.9749325,18.0191559 19.9874325,16.6136559 20.6069325,14.9824059 L16.2194325,14.9824059 C15.6569325,16.0511559 14.3631825,16.7824059 13.0131825,16.7824059 C11.1006825,16.7824059 9.52568253,15.2074059 9.47018253,13.4074059 L9.47018253,13.2386559 L20.9436825,13.2386559 L20.9436825,13.0699059 C20.9436825,12.7886559 20.9999325,12.4511559 20.9999325,12.2269059 C20.9999325,10.8769059 20.6624325,9.58315589 20.0999325,8.40190589 L20.0999325,8.40190589 Z M4.85768253,19.6511559 C3.95768253,18.7511559 4.23968253,17.0081559 5.30768253,14.9269059 C5.81393253,16.3331559 6.65768253,17.5706559 7.72643253,18.4706559 C8.06393253,18.7519059 8.45768253,19.0331559 8.85143253,19.2581559 C7.05143253,20.2136559 5.58893253,20.3831559 4.85768253,19.6511559 Z M16.3881825,11.1026559 L9.52643253,11.1026559 L9.52643253,11.0464059 C9.63893253,9.30265589 11.2694325,7.78390589 13.1819325,7.78390589 C14.9819325,7.78390589 16.4444325,9.19015589 16.5569325,11.0464059 L16.5569325,11.1026559 L16.3881825,11.1026559 Z M19.8186825,7.95265589 C19.4811825,7.39015589 19.0311825,6.82765589 18.5249325,6.37765589 C17.7405972,5.6483613 16.8241757,5.07559788 15.8249325,4.69015589 C17.6249325,3.84715589 19.1436825,3.73465589 19.9311825,4.52215589 C20.5499325,5.25340589 20.4936825,6.49015589 19.8186825,7.95265589 C19.8186825,8.00890589 19.8186825,8.00890589 19.8186825,7.95265589 C19.8186825,8.00890589 19.8186825,8.00890589 19.8186825,7.95265589 L19.8186825,7.95265589 Z"/>
  </defs>
  <g fill="none" fill-rule="evenodd">
    <polygon points="0 0 24 0 24 24 0 24"/>
    <mask id="internet-explorer-b" fill="#fff">
      <use xlink:href="#internet-explorer-a"/>
    </mask>
    <use fill="#000" xlink:href="#internet-explorer-a"/>
    <g fill="#000" mask="url(#internet-explorer-b)">
      <rect width="24" height="24"/>
    </g>
  </g>
</svg>

<svg xmlns="http://www.w3.org/2000/svg" xmlns:xlink="http://www.w3.org/1999/xlink" width="24" height="24" viewBox="0 0 24 24">
  <defs>
    <path id="internet-explorer-a" d="M20.1 8.402c.844-2.025.9-3.713-.113-4.725-1.125-1.124-3.825-.788-6.693.562h-.337c-2.025 0-3.993.732-5.456 2.025-1.237 1.125-2.137 2.588-2.53 4.22.28-.338 1.855-2.195 3.655-3.207.057 0 .507-.281.507-.281-.057 0-.9.843-1.07 1.012-3.937 4.05-6.242 10.18-4.442 11.98 1.18 1.181 3.318.9 5.793-.45 1.069.506 2.25.731 3.543.731 1.687 0 3.262-.45 4.612-1.35 1.406-.9 2.418-2.305 3.038-3.937h-4.388c-.562 1.07-1.856 1.8-3.206 1.8-1.912 0-3.487-1.575-3.543-3.375v-.168h11.474v-.17c0-.28.056-.618.056-.842 0-1.35-.338-2.644-.9-3.825zM4.858 19.652c-.9-.9-.618-2.644.45-4.725.506 1.406 1.35 2.644 2.418 3.544.338.28.732.562 1.125.787-1.8.956-3.262 1.125-3.993.393zm11.53-8.55H9.526v-.056c.113-1.743 1.743-3.262 3.656-3.262 1.8 0 3.262 1.406 3.375 3.262v.057h-.169zm3.43-3.15a6.9 6.9 0 0 0-1.293-1.574 8.41 8.41 0 0 0-2.7-1.688c1.8-.843 3.319-.955 4.106-.168.619.731.563 1.968-.112 3.43 0 .057 0 .057 0 0 0 .057 0 .057 0 0z"/>
  </defs>
  <g fill="none" fill-rule="evenodd">
    <polygon points="0 0 24 0 24 24 0 24"/>
    <mask id="internet-explorer-b" fill="#fff">
      <use xlink:href="#internet-explorer-a"/>
    </mask>
    <use fill="#000" xlink:href="#internet-explorer-a"/>
    <g fill="#000" mask="url(#internet-explorer-b)">
      <rect width="24" height="24"/>
    </g>
  </g>
</svg>
